packages/core/src/svgs/fund.svg

<svg width="24" height="24" viewBox="0 0 24 24" fill="none" xmlns="http://www.w3.org/2000/svg">
<g clip-path="url(#clip0_31_10559)">
<path d="M0 0H24V24H0V0Z" fill="url(#paint0_linear_31_10559)"/>
<path d="M7.15274 6.85693H16.2042L18.2489 10.9468L13.6113 17.5712H10.817L6.17989 10.9468L7.7956 7.71408H15.5613L17.177 10.9459L13.184 16.7141H11.2452L7.25132 10.9459L8.43846 8.57122H14.9185L16.1056 10.9451L12.7555 15.8569H11.672L8.32274 10.9451L9.08174 9.42836H14.2752L15.0329 10.9438L12.2142 15.1712L9.39546 10.9434L9.72417 10.2855H13.6319L13.9623 10.9468L12.2035 13.4595L10.7562 11.1426H12.4285V11.5712H11.5293L12.224 12.6829L13.4652 10.9099L13.3675 10.7141H9.98946L9.89003 10.9129L12.2142 14.3998L14.5383 10.9134L14.0099 9.85693H9.3466L8.81946 10.9116L11.8983 15.4284H12.5292L15.6085 10.9116L14.6532 8.99979H8.70374L7.74803 10.9108L11.4693 16.2855H12.959L16.6799 10.9108L15.2956 8.14265H8.06132L6.67746 10.9099L11.0399 17.1426H13.3885L17.7513 10.9099L15.9385 7.28551H7.41846L5.60517 10.9121L10.3992 17.9998H14.0292L18.8236 10.9121L16.9507 7.16722L17.3343 6.97522L19.3186 10.9446L14.2567 18.4284H10.1725L5.10889 10.9446L7.15274 6.85693Z" fill="white"/>
</g>
<defs>
<linearGradient id="paint0_linear_31_10559" x1="24" y1="7.5" x2="0" y2="19.5" gradientUnits="userSpaceOnUse">
<stop stop-color="#3F59A1"/>
<stop offset="1" stop-color="#3B8DCE"/>
</linearGradient>
<clipPath id="clip0_31_10559">
<rect width="24" height="24" fill="white"/>
</clipPath>
</defs>
</svg>

<svg xmlns="http://www.w3.org/2000/svg" width="24" height="24" fill="none" viewBox="0 0 24 24"><g clip-path="url(#a)"><path fill="url(#b)" d="M0 0h24v24H0z"/><path fill="#fff" d="M7.153 6.857h9.051l2.045 4.09-4.638 6.624h-2.794L6.18 10.947l1.616-3.233h7.765l1.616 3.232-3.993 5.768h-1.939l-3.994-5.768L8.438 8.57h6.48l1.188 2.374-3.35 4.912h-1.084l-3.35-4.912.76-1.517h5.193l.758 1.516-2.819 4.227-2.819-4.228.33-.657h3.907l.33.66-1.758 2.514-1.448-2.317h1.672v.428h-.899l.695 1.112 1.241-1.773-.098-.196H9.99l-.099.199 2.324 3.487 2.324-3.487-.528-1.056H9.347l-.528 1.055 3.08 4.516h.63l3.08-4.516L14.653 9h-5.95l-.955 1.91 3.721 5.375h1.49l3.72-5.374-1.383-2.768H8.06L6.677 10.91l4.363 6.233h2.349l4.362-6.233-1.813-3.624h-8.52l-1.813 3.626L10.4 18h3.63l4.795-7.088-1.873-3.745.383-.192 1.985 3.97-5.062 7.483h-4.085L5.11 10.945z"/></g><defs><linearGradient id="b" x1="24" x2="0" y1="7.5" y2="19.5" gradientUnits="userSpaceOnUse"><stop stop-color="#3F59A1"/><stop offset="1" stop-color="#3B8DCE"/></linearGradient><clipPath id="a"><path fill="#fff" d="M0 0h24v24H0z"/></clipPath></defs></svg>
